public/library/privex-icon-light.svg

<svg xmlns="http://www.w3.org/2000/svg" width="24" height="24" viewBox="0 0 28 28" fill="none"><rect width="28" height="28" rx="14" fill="#0051FF"></rect><path d="M14.005 23.727C13.0074 23.727 10.9739 22.0216 9.27294 19.7591C8.00309 18.0687 5.83781 14.6041 5.61857 10.3857L5.6001 10.0176L14.005 5.6001L22.4001 10.0126L22.3927 10.3694C22.2979 14.6329 20.1018 18.1088 18.8012 19.8004C17.1088 22.0029 15.0027 23.727 14.0063 23.727H14.005ZM6.76156 10.6925L6.79112 10.9717C7.15816 14.5002 8.96133 17.4214 10.0046 18.8488C11.5873 21.0149 13.2192 22.3171 13.8732 22.55L14.0038 22.5964L14.1356 22.5513C14.8093 22.3197 16.477 21.0287 18.0769 18.8851C19.3825 17.1346 20.9911 14.3411 21.2399 10.9679L21.2596 10.6975L14.005 6.88477L6.76156 10.6925Z" fill="white"></path><path d="M10.9075 17.3005L12.0098 14.6548C12.2254 14.1364 12.2327 13.5629 12.0308 13.0395L11.1292 10.7056H12.335L13.0752 12.6226C13.3856 13.4264 13.3745 14.3054 13.0432 15.1005L12.1268 17.3005H10.9075Z" fill="white"></path><path d="M16.1423 17.3005L15.2259 15.1005C14.8946 14.3054 14.8835 13.4264 15.1939 12.6226L15.9341 10.7056H17.1399L16.2383 13.0395C16.0364 13.5629 16.0437 14.1364 16.2593 14.6548L17.3616 17.3005H16.1423Z" fill="white"></path></svg>

<svg xmlns="http://www.w3.org/2000/svg" width="24" height="24" fill="none" viewBox="0 0 28 28"><rect width="28" height="28" fill="#0051ff" rx="14"/><path fill="#fff" d="M14.005 23.727c-.998 0-3.031-1.705-4.732-3.968-1.27-1.69-3.435-5.155-3.654-9.373l-.019-.368L14.005 5.6l8.395 4.413-.007.356c-.095 4.264-2.291 7.74-3.592 9.431-1.692 2.203-3.798 3.927-4.795 3.927zM6.762 10.693l.03.279c.366 3.528 2.17 6.45 3.213 7.877 1.582 2.166 3.214 3.468 3.868 3.701l.13.046.133-.045c.673-.231 2.341-1.522 3.94-3.666 1.306-1.75 2.915-4.544 3.164-7.917l.02-.27-7.255-3.813z"/><path fill="#fff" d="m10.908 17.3 1.102-2.645a2.16 2.16 0 0 0 .02-1.615l-.9-2.334h1.205l.74 1.917c.31.803.3 1.682-.032 2.478l-.916 2.2zM16.142 17.3l-.916-2.2a3.3 3.3 0 0 1-.032-2.477l.74-1.917h1.206l-.902 2.334a2.16 2.16 0 0 0 .021 1.615l1.103 2.646z"/></svg>
